!!!OTL: Herbstfreude.
!!!OTL-incipit: SCHAUT AUSI WIE'S REGNET
!!!ARE: Europa, Mitteleuropa, Deutschland, Bayern; Tirol
!!!SCT: Z1203
!!!YEM: Copyright 1995, estate of Helmut Schaffrath.
**kern	**text
*ICvox	*
*M3/4	*
*k[f#c#g#]	*
*A:	*
!LO:TX:a:t=Bayern und Tyrol.	!
{8aL	Schaut
8bJ	.
=1	=1
4.cc#/	au-
8cc#/	-ſi
4cc#/	wie's
=2	=2
4dd/	reg-
4b;}	-net,
{8b/L	ſchaut
8cc#J	.
=3	=3
4.dd/	au-
8dd/	-ſi
4dd/	wie's
=4	=4
4ee/	gießt,
4r}	.
{8aL	ſchaut
8bJ	.
=5	=5
4.cc#/	au-
8cc#/	-ſi
4cc#/	wie
=6	=6
4dd/	d'Re-
4b;}	-gen
{8b/L	vom
8cc#J	.
=7	=7
4.dd/	Dach
8dd/	a-
4dd/	-bi
=8	=8
2cc#/}	fließt!
==	==
!!!AGN: Liebes - Lied
!!!ONB: ESAC (Essen Associative Code) Database: ZUCCAL
!!!AMT: simple triple
!!!AIN: vox
!!!EED: Helmut Schaffrath
!!!EEV: 1.0
!!!GTL: V. Lieder der Minne.
!!!URL-scan: https://www.digitale-sammlungen.de/de/view/bsb11160573?page=408
!!!ENC: Anna Maria Matuszewska
!!!EEV: 2025/02/05
*-	*-
